Sources/FrostedUI/Resources/Icons.xcassets/heart24.imageset/heart-24.svg

<svg width="24" height="24" viewBox="0 0 24 24" fill="none" xmlns="http://www.w3.org/2000/svg" data-fui-icon="true">
  <path
    d="M12.0005 4.55292C13.6407 3.16547 15.5345 2.75269 17.2534 3.1369C19.143 3.55949 20.751 4.92853 21.5181 6.84589C23.0866 10.7672 21.0869 16.5053 12.3677 21.4045C12.1398 21.5323 11.8612 21.5322 11.6333 21.4045C2.91364 16.5052 0.914196 10.7673 2.48291 6.84589C3.25003 4.92839 4.85779 3.55938 6.74756 3.1369C8.46647 2.75281 10.3603 3.16547 12.0005 4.55292ZM16.9263 4.60077C15.5554 4.29437 13.9491 4.66083 12.5356 6.09784L12.0005 5.57147L11.4653 6.09784C10.0519 4.66086 8.44549 4.2945 7.07471 4.60077C5.68515 4.91146 4.46543 5.9282 3.87549 7.40253C2.74698 10.2234 3.86573 15.1855 12.0005 19.883C20.1348 15.1856 21.2538 10.2234 20.1255 7.40253C19.5356 5.92835 18.3156 4.91157 16.9263 4.60077ZM12.5356 6.09784C12.3947 6.24111 12.2014 6.32234 12.0005 6.32245C11.7995 6.32245 11.6063 6.24102 11.4653 6.09784L12.0005 5.57245L12.5356 6.09784Z"
    fill="currentColor"
  />
</svg>

<svg xmlns="http://www.w3.org/2000/svg" width="24" height="24" fill="none" data-fui-icon="true" viewBox="0 0 24 24"><path fill="currentColor" d="M12 4.553c1.64-1.388 3.534-1.8 5.253-1.416 1.89.422 3.498 1.792 4.265 3.709 1.569 3.921-.431 9.66-9.15 14.558a.75.75 0 0 1-.735 0C2.913 16.505.914 10.767 2.483 6.846c.767-1.918 2.375-3.287 4.265-3.71 1.718-.383 3.612.03 5.253 1.417m4.926.048c-1.37-.307-2.977.06-4.39 1.497L12 5.57l-.536.527C10.052 4.66 8.445 4.295 7.075 4.6c-1.39.31-2.61 1.327-3.2 2.802-1.128 2.82-.01 7.783 8.125 12.48 8.135-4.697 9.254-9.66 8.125-12.48-.59-1.475-1.81-2.491-3.199-2.802m-4.39 1.497a.75.75 0 0 1-1.07 0L12 5.572z"/></svg>
